X:1
T:Bickleigh, 87.87.47
T:Bickleigh, 87.87.47
T:Samuel Sebastian Wesley, 1864
T:Public Domain Courtesy of the Cyber Hymnal™
C:Samuel Sebastian Wesley, 1864
Z:Public Domain
Z:Courtesy of the Cyber Hymnal™
%%score ( 1 2 ) ( 3 4 )
L:1/8
Q:1/4=107
M:none
K:G
V:1 treble 
V:2 treble 
V:3 bass 
V:4 bass 
V:1
 D2 D2 [EG]2 [GB]2 | [GA]2 (Bc) [Fc]2 [GB]2 | [DA]2 [DF]2 [DB]2 [DG]2 | [Fc]2 [GB]2 [FA]4 | %4
 D2 D2 [EG]2 [GB]2 | [GA]2 (Bc) [Fc]2 [GB]2 | [GB]2 [G^c]2 [Ad]2 [Ge]2 | [Fd]2 [E^c]2 [Fd]4 | %8
 [Fd]2 [GB]2 [GA]2 [FA]2 | [Gd]2 [GB]2 [Ge]2 (dc) | [GB]2 [FA]2 G4 |] %11
V:2
 D2 D2 x4 | x2 F2 x4 | x8 | x8 | D2 D2 x4 | x2 F2 x4 | x8 | x8 | x8 | x6 A2 | x4 G4 |] %11
V:3
 [G,B,]2 [F,A,]2 [E,B,]2 [B,,D]2 | [C,E]2 [D,D]2 [G,,D]2 [G,,D]2 | [F,A,]2 [D,A,]2 [G,B,]2 B,2 | %3
 [A,D]2 [G,D]2 [D,D]4 | [G,B,]2 [F,A,]2 [E,B,]2 [B,,D]2 | [C,E]2 [D,D]2 [G,D]2 [G,D]2 | %6
 [G,D]2 [E,E]2 [F,D]2 [G,B,]2 | A,2 [A,,A,]2 [D,A,]4 | [D,D]2 [D,D]2 [D,^C]2 [D,D]2 | %9
 [B,,D]2 [G,,D]2 [C,C]2 [C,E]2 | [D,D]2 (DC) [G,B,]4 |] %11
V:4
 x8 | x8 | x6 B,2 | x8 | x8 | x8 | x8 | A,2 x6 | x8 | x8 | x2 D,2 x4 |] %11

